svgs/duotone/file-lines.svg

<svg xmlns="http://www.w3.org/2000/svg" viewBox="0 0 384 512"><!--! Font Awesome Pro 6.4.2 by @fontawesome - https://fontawesome.com License - https://fontawesome.com/license (Commercial License) Copyright 2023 Fonticons, Inc. --><path class="fa-primary" style="fill:var(--fa-primary-color,inherit);opacity:var(--fa-primary-opacity,1);" d="M384 160L224 0V128c0 17.7 14.3 32 32 32H384zM112 256c-8.8 0-16 7.2-16 16s7.2 16 16 16H272c8.8 0 16-7.2 16-16s-7.2-16-16-16H112zm0 64c-8.8 0-16 7.2-16 16s7.2 16 16 16H272c8.8 0 16-7.2 16-16s-7.2-16-16-16H112zm0 64c-8.8 0-16 7.2-16 16s7.2 16 16 16H272c8.8 0 16-7.2 16-16s-7.2-16-16-16H112z"/><path class="fa-secondary" style="fill:var(--fa-secondary-color,inherit);opacity:var(--fa-secondary-opacity,.4);" d="M0 64C0 28.7 28.7 0 64 0H224V128c0 17.7 14.3 32 32 32H384V448c0 35.3-28.7 64-64 64H64c-35.3 0-64-28.7-64-64V64zM112 256c-8.8 0-16 7.2-16 16s7.2 16 16 16H272c8.8 0 16-7.2 16-16s-7.2-16-16-16H112zm0 64c-8.8 0-16 7.2-16 16s7.2 16 16 16H272c8.8 0 16-7.2 16-16s-7.2-16-16-16H112zm0 64c-8.8 0-16 7.2-16 16s7.2 16 16 16H272c8.8 0 16-7.2 16-16s-7.2-16-16-16H112z"/></svg>

<svg xmlns="http://www.w3.org/2000/svg" viewBox="0 0 384 512"><!--! Font Awesome Pro 6.1.1 by @fontawesome - https://fontawesome.com License - https://fontawesome.com/license (Commercial License) Copyright 2022 Fonticons, Inc. --><defs><style>.fa-secondary{opacity:.4}</style></defs><path class="fa-primary" d="M256 0v128h128L256 0zM272 384h-160C103.2 384 96 391.2 96 400S103.2 416 112 416h160c8.836 0 16-7.164 16-16S280.8 384 272 384zM272 320h-160C103.2 320 96 327.2 96 336S103.2 352 112 352h160c8.836 0 16-7.164 16-16S280.8 320 272 320zM272 256h-160C103.2 256 96 263.2 96 272S103.2 288 112 288h160C280.8 288 288 280.8 288 272S280.8 256 272 256z"/><path class="fa-secondary" d="M256 128V0H48C21.49 0 0 21.49 0 48v416C0 490.5 21.49 512 48 512h288c26.51 0 48-21.49 48-48V128H256zM272 416h-160C103.2 416 96 408.8 96 400S103.2 384 112 384h160c8.836 0 16 7.164 16 16S280.8 416 272 416zM272 352h-160C103.2 352 96 344.8 96 336S103.2 320 112 320h160c8.836 0 16 7.164 16 16S280.8 352 272 352zM272 288h-160C103.2 288 96 280.8 96 272S103.2 256 112 256h160C280.8 256 288 263.2 288 272S280.8 288 272 288z"/></svg>
